X:160
T: Brendan Tonra's Jig
T: Tone Rowe's
M: 6/8
L: 1/8
R: Jig
K: D
E|F2 F AFE|EDB, A,B,D|FEF GFG|ABF AFE|
F2 F AFE|EDB, A,B,D|FEF GFG|BAF D2 :|
e|f2 d dcd|edc Bcd|fdd dcd|ABF Ade|
f2 d dcd|edc Bcd|(3fgaf gec|dAF D2 :|
